PartyHub/src/assets/top-box.svg

<?xml version="1.0" encoding="UTF-8"?>
<svg id="Layer_1" data-name="Layer 1" xmlns="http://www.w3.org/2000/svg" viewBox="0 0 121.48 54">
  <defs>
    <style>
      .cls-1 {
        fill: #2b2c2c;
      }

      .cls-2 {
        fill: #ed1c24;
      }

      .cls-3 {
        fill: #010101;
      }

      .cls-4 {
        fill: #191313;
      }
    </style>
  </defs>
  <g id="Layer_2" data-name="Layer 2">
    <g id="Layer_1-2" data-name="Layer 1-2">
      <g id="Layer_2-2" data-name="Layer 2-2">
        <g id="Layer_1-2-2" data-name="Layer 1-2-2">
          <path class="cls-3" d="m120.6,16.22l-59.6,15.98v21.8l60.39-16.18c0-6,0-13.23.09-21.39l-.88-.21Z"/>
          <path class="cls-4" d="m.13,16.08h-.13v12c0,3.52,0,6.78.05,9.73l60.95,16.19v-21.74L.13,16.08Z"/>
          <path class="cls-1" d="m5.87,14.54L.13,16.08c20.26,5.42,40.52,10.87,60.77,16.35,20.14-5.38,40.3-10.71,60.47-16C100.89,10.96,80.43,5.49,60,0,42,4.86,23.96,9.71,5.87,14.54Z"/>
          <path class="cls-2" d="m99.35,43.71v-21.65l-13.86,3.76-2.14.57v21.67l16-4.35Z"/>
          <path class="cls-2" d="m21.2,43.44v-21.38l13.87,3.71,2.13.57v21.4l-16-4.3Z"/>
          <path class="cls-2" d="m80.36,5.48L21.24,21.89v.2l16,4.27,59.45-16.5-16.33-4.38Z"/>
          <path class="cls-2" d="m40,5.35l59.35,16.59v.21l-16,4.33L23.64,9.77l16.36-4.42Z"/>
        </g>
      </g>
    </g>
  </g>
</svg>

<?xml version="1.0" encoding="utf-8"?>
<!-- Generator: Adobe Illustrator 27.5.0, SVG Export Plug-In . SVG Version: 6.00 Build 0)  -->
<svg version="1.1" id="Layer_1" xmlns="http://www.w3.org/2000/svg" xmlns:xlink="http://www.w3.org/1999/xlink" x="0px" y="0px"
	 viewBox="0 0 121.4 54" style="enable-background:new 0 0 121.4 54;" xml:space="preserve">
<style type="text/css">
	.st0{fill:#010101;}
	.st1{fill:#1F2020;}
	.st2{fill:#333434;}
	.st3{fill:#ED1C24;}
</style>
<g id="Layer_2_00000099622615704456167210000002838187328992414091_">
	<g id="Layer_1-2">
		<g id="Layer_2-2">
			<g id="Layer_1-2-2">
				<g>
					
						<image style="overflow:visible;opacity:0.75;" width="91" height="68" xlink:href="B0AFC494.png"  transform="matrix(1 0 0 1 61 -3)">
					</image>
					<g>
						<path class="st0" d="M120.6,16.2L61,32.2V54l60.4-16.2c0-6,0-13.2,0.1-21.4L120.6,16.2z"/>
					</g>
				</g>
				<path class="st1" d="M0.1,16.1H0v6.1c0,2,0,4,0,5.9c0,3.5,0,6.8,0.1,9.7L61,54V32.3L0.1,16.1z"/>
				<g>
					
						<image style="overflow:visible;opacity:0.75;" width="152" height="63" xlink:href="B0AFC495.png"  transform="matrix(1 0 0 1 0 -19)">
					</image>
					<g>
						<path class="st2" d="M5.9,14.5L0.2,16C20.5,21.4,40.7,26.9,61,32.4c20.1-5.4,40.3-10.7,60.5-16C100.9,11,80.4,5.5,60,0
							C42,4.9,24,9.7,5.9,14.5z"/>
					</g>
				</g>
				<path class="st3" d="M99.3,43.7V22.1l-13.9,3.8l-2.1,0.6v21.7L99.3,43.7z"/>
				<path class="st3" d="M21.2,43.4V22.1l13.9,3.7l2.1,0.6v21.4L21.2,43.4z"/>
				<path class="st3" d="M80.4,5.5L21.2,21.9v0.2l16,4.3L96.7,9.9L80.4,5.5z"/>
				<path class="st3" d="M40,5.3l59.3,16.6v0.2l-16,4.3L23.6,9.8L40,5.3z"/>
			</g>
		</g>
	</g>
</g>
</svg>
